!!!OTL: IN EINEM KUEHLEN GRUNDE
!!!ARE: Europa, Mitteleuropa, Deutschland, Norddeutschland
!!!SCT: B0453
!!!YEM: Copyright 1995, estate of Helmut Schaffrath.
**kern
*ICvox
*Ivox
*M6/8
*k[b-]
*F:
{8c
=1
4f
8f
8f
8e
8f
=2
4g
8e
4c}
{8c
=3
4f
8f
8g
8f
8g
=4
2a
8r}
{8a
=5
8a
8g
8g
8g
8a
8b-
=6
4.cc
4d}
{8g
=7
4f
8f
8g
8f
8g
=8
2a
8r}
{8a
=9
8a
8g
8g
8g
8a
8b-
=10
4cc
8ff
8dd
8b-}
{8g
=11
4f
8f
4a
8g
=12
2f
8r}
==
!!!AGN: Liebes - Lied, Leid, Klage
!!!ONB: ESAC (Essen Associative Code) Database: BOEHME
!!!AMT: compound duple
!!!AIN: vox
!!!EED: Helmut Schaffrath
!!!EEV: 1.0
*-
